packages/astro-components-stencil/src/icons/airplanemode-active.svg

<svg xmlns="http://www.w3.org/2000/svg" viewBox="0 0 24 24"><g xmlns="http://www.w3.org/2000/svg" id="airplanemode-active" fill-rule="nonzero">
            <path d="M21 14.58c0-.36-.19-.69-.49-.89L13 9V3.5c0-.83-.67-1.5-1.5-1.5S10 2.67 10 3.5V9l-7.51 4.69a1.05 1.05 0 00.87 1.89L10 13.5V19l-1.8 1.35a.48.48 0 00-.2.4v.59c0 .33.32.57.64.48L11.5 21l2.86.82c.32.09.64-.15.64-.48v-.59a.48.48 0 00-.2-.4L13 19v-5.5l6.64 2.08c.68.21 1.36-.3 1.36-1z"/>
        </g></svg>

<svg width="24" height="24" viewBox="0 0 24 24" fill="none" xmlns="http://www.w3.org/2000/svg">
<path d="M21 14.58C21 14.22 20.81 13.89 20.51 13.69L13 9V3.5C13 2.67 12.33 2 11.5 2C10.67 2 10 2.67 10 3.5V9L2.49 13.69C2.19 13.88 2 14.22 2 14.58C2 15.28 2.68 15.79 3.36 15.58L10 13.5V19L8.2 20.35C8.07 20.44 8 20.59 8 20.75V21.34C8 21.67 8.32 21.91 8.64 21.82L11.5 21L14.36 21.82C14.68 21.91 15 21.67 15 21.34V20.75C15 20.59 14.93 20.44 14.8 20.35L13 19V13.5L19.64 15.58C20.32 15.79 21 15.28 21 14.58Z" fill="black"/>
</svg>
